svgs/darkpapers.svg

<svg width="24" height="24" viewBox="0 0 24 24" fill="none" xmlns="http://www.w3.org/2000/svg">
<path d="M2.82161 6H4.29663C4.63735 6 4.93926 6.05176 5.20235 6.15527C5.46544 6.25446 5.6854 6.39463 5.86223 6.57578C6.03906 6.75261 6.17276 6.9661 6.26333 7.21625C6.3539 7.46208 6.39919 7.7338 6.39919 8.03139C6.39919 8.37642 6.33449 8.70636 6.2051 9.02121C6.08003 9.33174 5.89673 9.60776 5.65521 9.84929C5.41799 10.0865 5.12903 10.2763 4.78831 10.4186C4.44759 10.5609 4.06158 10.6321 3.63029 10.6321H2L2.82161 6ZM3.67557 9.804C3.9516 9.804 4.20391 9.76087 4.43249 9.67461C4.66108 9.58836 4.85516 9.46975 5.01474 9.3188C5.17863 9.16785 5.3037 8.99101 5.38996 8.78831C5.48053 8.5856 5.52582 8.36564 5.52582 8.12843C5.52582 7.71008 5.41584 7.38876 5.19588 7.16449C4.98023 6.94022 4.65029 6.82808 4.20606 6.82808H3.54618L3.01569 9.804H3.67557ZM8.47424 7.35857C8.90985 7.35857 9.24194 7.46208 9.47053 7.6691C9.69911 7.87612 9.81341 8.14784 9.81341 8.48425C9.81341 8.536 9.80909 8.58991 9.80047 8.64598C9.79615 8.69774 9.78968 8.7538 9.78106 8.81418L9.45759 10.6321H8.62304L8.68126 10.2957H8.62951C8.53031 10.4208 8.40523 10.5264 8.25428 10.6127C8.10764 10.6946 7.92866 10.7356 7.71732 10.7356C7.55775 10.7356 7.41111 10.7097 7.2774 10.658C7.14802 10.6105 7.03588 10.5437 6.941 10.4574C6.85043 10.3668 6.77926 10.2612 6.72751 10.1404C6.67575 10.0153 6.64987 9.88163 6.64987 9.73931C6.64987 9.55816 6.68438 9.39643 6.75338 9.2541C6.8267 9.11178 6.92806 8.99101 7.05745 8.89182C7.19115 8.78831 7.34857 8.71067 7.52971 8.65892C7.71517 8.60285 7.91787 8.57482 8.13783 8.57482C8.29741 8.57482 8.4419 8.58991 8.57128 8.6201C8.70498 8.64598 8.83221 8.68048 8.95298 8.72361L8.97885 8.62657C8.98748 8.58344 8.99179 8.54894 8.99179 8.52306C8.99179 8.38505 8.93357 8.27076 8.81712 8.18018C8.70498 8.08961 8.55619 8.04433 8.37073 8.04433C8.20684 8.04433 8.06236 8.07667 7.93728 8.14137C7.81221 8.20175 7.70007 8.29016 7.60087 8.40661L7.03157 7.99257C7.20408 7.77261 7.41542 7.61303 7.66557 7.51384C7.91572 7.41033 8.18528 7.35857 8.47424 7.35857ZM7.99551 10.0757C8.10333 10.0757 8.20468 10.0563 8.29957 10.0175C8.39877 9.97436 8.48502 9.92045 8.55834 9.85576C8.63598 9.78675 8.69851 9.70912 8.74596 9.62286C8.79771 9.53229 8.83222 9.43956 8.84947 9.34467C8.78477 9.31448 8.69205 9.28214 8.57128 9.24763C8.45483 9.20882 8.31898 9.18941 8.16371 9.18941C7.98257 9.18941 7.8273 9.23038 7.69792 9.31233C7.56853 9.38996 7.50383 9.51072 7.50383 9.67461C7.50383 9.80831 7.55128 9.90967 7.64616 9.97867C7.74536 10.0434 7.86181 10.0757 7.99551 10.0757ZM10.015 10.6321L10.5713 7.46208H11.3671L11.2894 7.902H11.3412C11.4447 7.75105 11.5784 7.62597 11.7423 7.52678C11.9062 7.42327 12.0981 7.37151 12.3181 7.37151C12.4302 7.37151 12.5208 7.38229 12.5898 7.40386C12.6631 7.42542 12.7257 7.45346 12.7774 7.48796L12.4604 8.25782C12.413 8.23625 12.3569 8.21684 12.2922 8.19959C12.2318 8.18234 12.1563 8.17372 12.0658 8.17372C11.8199 8.17372 11.6129 8.25997 11.4447 8.43249C11.2808 8.60069 11.1752 8.82281 11.1277 9.09884L10.8625 10.6321H10.015ZM13.9103 8.47778H13.962L15.1395 7.46208H16.2328L16.2198 7.51384L14.8225 8.67833L15.7799 10.5803L15.767 10.6321H14.8095L14.1496 9.23469L13.7097 9.60345L13.5286 10.6321H12.6811L13.4962 6H14.3437L13.9103 8.47778ZM2 16.6223L2.82161 11.9902H4.37427C4.58129 11.9902 4.77106 12.0225 4.94357 12.0872C5.11609 12.1519 5.26489 12.2425 5.38996 12.3589C5.51935 12.4754 5.61855 12.6155 5.68755 12.7794C5.76087 12.9433 5.79753 13.1245 5.79753 13.3229C5.79753 13.5773 5.75225 13.8038 5.66168 14.0022C5.57542 14.2006 5.4525 14.3688 5.29292 14.5068C5.13334 14.6405 4.94142 14.744 4.71714 14.8173C4.49718 14.8863 4.25566 14.9208 3.99257 14.9208H3.17096L2.87337 16.6223H2ZM4.10902 14.0927C4.34192 14.0927 4.536 14.0367 4.69127 13.9245C4.84653 13.8081 4.92416 13.6291 4.92416 13.3876C4.92416 13.2194 4.87241 13.0835 4.7689 12.98C4.6697 12.8722 4.52306 12.8183 4.32898 12.8183H3.54618L3.31976 14.0927H4.10902ZM7.5266 13.3487C7.9622 13.3487 8.2943 13.4523 8.52288 13.6593C8.75147 13.8663 8.86576 14.138 8.86576 14.4744C8.86576 14.5262 8.86145 14.5801 8.85282 14.6362C8.84851 14.6879 8.84204 14.744 8.83341 14.8044L8.50994 16.6223H7.67539L7.73362 16.2859H7.68186C7.58266 16.4109 7.45759 16.5166 7.30664 16.6029C7.16 16.6848 6.98101 16.7258 6.76968 16.7258C6.6101 16.7258 6.46346 16.6999 6.32976 16.6481C6.20037 16.6007 6.08824 16.5338 5.99335 16.4476C5.90278 16.357 5.83162 16.2513 5.77986 16.1306C5.72811 16.0055 5.70223 15.8718 5.70223 15.7295C5.70223 15.5483 5.73673 15.3866 5.80574 15.2443C5.87906 15.102 5.98041 14.9812 6.1098 14.882C6.2435 14.7785 6.40092 14.7009 6.58207 14.6491C6.76752 14.593 6.97023 14.565 7.19019 14.565C7.34977 14.565 7.49425 14.5801 7.62364 14.6103C7.75734 14.6362 7.88457 14.6707 8.00533 14.7138L8.03121 14.6167C8.03983 14.5736 8.04415 14.5391 8.04415 14.5132C8.04415 14.3752 7.98592 14.2609 7.86947 14.1704C7.75734 14.0798 7.60854 14.0345 7.42309 14.0345C7.2592 14.0345 7.11471 14.0669 6.98964 14.1315C6.86456 14.1919 6.75243 14.2803 6.65323 14.3968L6.08392 13.9827C6.25644 13.7628 6.46777 13.6032 6.71792 13.504C6.96807 13.4005 7.23763 13.3487 7.5266 13.3487ZM7.04786 16.0659C7.15568 16.0659 7.25704 16.0465 7.35192 16.0077C7.45112 15.9645 7.53738 15.9106 7.6107 15.8459C7.68833 15.7769 7.75087 15.6993 7.79831 15.613C7.85007 15.5225 7.88457 15.4297 7.90182 15.3349C7.83713 15.3047 7.7444 15.2723 7.62364 15.2378C7.50719 15.199 7.37133 15.1796 7.21607 15.1796C7.03492 15.1796 6.87966 15.2206 6.75027 15.3025C6.62088 15.3801 6.55619 15.5009 6.55619 15.6648C6.55619 15.7985 6.60363 15.8998 6.69851 15.9689C6.79771 16.0335 6.91416 16.0659 7.04786 16.0659ZM11.4869 13.3487C11.6767 13.3487 11.8513 13.3876 12.0109 13.4652C12.1705 13.5385 12.3085 13.642 12.4249 13.7757C12.5414 13.9051 12.632 14.0625 12.6967 14.248C12.7614 14.4291 12.7937 14.6275 12.7937 14.8432C12.7937 15.0933 12.7506 15.3327 12.6643 15.5613C12.5781 15.7856 12.4551 15.9839 12.2956 16.1565C12.136 16.329 11.9462 16.467 11.7262 16.5705C11.5063 16.674 11.2648 16.7258 11.0017 16.7258C10.7903 16.7258 10.5963 16.6805 10.4194 16.5899C10.2469 16.495 10.124 16.3786 10.0507 16.2406H9.99892L9.97951 16.6934L9.74662 18.0196H8.89912L9.7078 13.4523H10.4971L10.4324 13.834H10.4841C10.5704 13.7089 10.6933 13.5967 10.8529 13.4975C11.0168 13.3983 11.2281 13.3487 11.4869 13.3487ZM10.9758 15.943C11.1181 15.943 11.2475 15.9149 11.364 15.8589C11.4847 15.8028 11.5882 15.7273 11.6745 15.6324C11.7608 15.5376 11.8276 15.4276 11.875 15.3025C11.9225 15.1774 11.9462 15.0459 11.9462 14.9079C11.9462 14.6707 11.875 14.483 11.7327 14.345C11.5904 14.2027 11.4028 14.1315 11.1699 14.1315C11.0448 14.1315 10.924 14.1574 10.8076 14.2092C10.6911 14.2609 10.5876 14.3321 10.4971 14.4227C10.4108 14.5132 10.3396 14.6232 10.2836 14.7526C10.2318 14.882 10.2059 15.0243 10.2059 15.1796C10.2059 15.4125 10.2771 15.5979 10.4194 15.736C10.5618 15.874 10.7472 15.943 10.9758 15.943ZM16.0847 15.8459C15.8992 16.122 15.6814 16.3376 15.4313 16.4929C15.1811 16.6481 14.8685 16.7258 14.4932 16.7258C14.2603 16.7258 14.0512 16.687 13.8657 16.6093C13.6846 16.5317 13.5293 16.426 13.3999 16.2923C13.2705 16.1543 13.1713 15.9947 13.1023 15.8136C13.0333 15.6281 12.9988 15.4319 12.9988 15.2249C12.9988 14.979 13.0441 14.744 13.1347 14.5197C13.2252 14.2954 13.3525 14.097 13.5164 13.9245C13.6802 13.7477 13.8786 13.6075 14.1115 13.504C14.3444 13.4005 14.6032 13.3487 14.8879 13.3487C15.1208 13.3487 15.3235 13.3854 15.496 13.4587C15.6728 13.5277 15.8195 13.6226 15.9359 13.7434C16.0567 13.8641 16.1472 14.0043 16.2076 14.1639C16.268 14.3235 16.2982 14.4917 16.2982 14.6685C16.2982 14.8712 16.268 15.0588 16.2076 15.2313H13.8204V15.296C13.829 15.5289 13.9045 15.7014 14.0468 15.8136C14.1935 15.9214 14.3638 15.9753 14.5579 15.9753C14.7649 15.9753 14.9396 15.9365 15.0819 15.8589C15.2243 15.7769 15.345 15.6605 15.4442 15.5095L16.0847 15.8459ZM15.5089 14.6297V14.6038C15.5089 14.4572 15.4507 14.3278 15.3343 14.2156C15.2221 14.0992 15.0496 14.041 14.8167 14.041C14.6054 14.041 14.4199 14.0992 14.2603 14.2156C14.1051 14.3278 13.9972 14.4658 13.9369 14.6297H15.5089ZM16.5159 16.6223L17.0723 13.4523H17.868L17.7904 13.8922H17.8422C17.9457 13.7412 18.0794 13.6161 18.2433 13.517C18.4072 13.4134 18.5991 13.3617 18.819 13.3617C18.9312 13.3617 19.0217 13.3725 19.0907 13.394C19.1641 13.4156 19.2266 13.4436 19.2784 13.4781L18.9614 14.248C18.9139 14.2264 18.8579 14.207 18.7932 14.1898C18.7328 14.1725 18.6573 14.1639 18.5667 14.1639C18.3209 14.1639 18.1139 14.2501 17.9457 14.4227C17.7818 14.5909 17.6761 14.813 17.6287 15.089L17.3634 16.6223H16.5159ZM20.3632 16.7258C20.1692 16.7258 19.9945 16.702 19.8392 16.6546C19.684 16.6072 19.5481 16.5425 19.4317 16.4605C19.3195 16.3786 19.2246 16.2837 19.147 16.1759C19.0737 16.0637 19.0176 15.9451 18.9788 15.8201L19.7616 15.5031C19.7961 15.6669 19.8737 15.7877 19.9945 15.8653C20.1196 15.943 20.264 15.9818 20.4279 15.9818C20.5746 15.9818 20.6975 15.9559 20.7967 15.9042C20.9002 15.8481 20.952 15.7705 20.952 15.6713C20.952 15.585 20.9175 15.516 20.8484 15.4642C20.7794 15.4082 20.6695 15.3607 20.5185 15.3219L20.1756 15.2378C20.0764 15.2119 19.9772 15.1753 19.878 15.1278C19.7788 15.0804 19.6904 15.02 19.6128 14.9467C19.5352 14.8734 19.4705 14.7871 19.4187 14.6879C19.3713 14.5887 19.3475 14.4766 19.3475 14.3515C19.3475 14.1919 19.3821 14.0518 19.4511 13.931C19.5244 13.8059 19.6236 13.7003 19.7487 13.614C19.8737 13.5277 20.0204 13.463 20.1886 13.4199C20.3568 13.3725 20.5401 13.3487 20.7385 13.3487C21.3725 13.3487 21.793 13.6032 22 14.1121L21.2237 14.3968C21.1892 14.2803 21.1202 14.1919 21.0167 14.1315C20.9131 14.0669 20.7967 14.0345 20.6673 14.0345C20.5164 14.0345 20.3999 14.0604 20.318 14.1121C20.236 14.1596 20.195 14.2243 20.195 14.3062C20.195 14.4442 20.3136 14.5434 20.5509 14.6038L20.9972 14.7203C21.269 14.7893 21.4717 14.9014 21.6054 15.0567C21.7434 15.2119 21.8124 15.3909 21.8124 15.5936C21.8124 15.7705 21.7757 15.93 21.7024 16.0724C21.6291 16.2104 21.5277 16.329 21.3983 16.4282C21.269 16.5231 21.1159 16.5964 20.939 16.6481C20.7622 16.6999 20.5703 16.7258 20.3632 16.7258Z" fill="white"/>
</svg>

<svg xmlns="http://www.w3.org/2000/svg" viewBox="0 0 24 24"><path d="M2.822 5.99h1.475c.34 0 .642.051.905.154a1.736 1.736 0 0 1 1.061 1.061c.09.246.136.518.136.815a2.58 2.58 0 0 1-.744 1.818 2.657 2.657 0 0 1-.867.57 2.98 2.98 0 0 1-1.158.213H2zm.854 3.803c.276 0 .528-.043.756-.13.23-.086.423-.204.583-.355a1.61 1.61 0 0 0 .511-1.19c0-.419-.11-.74-.33-.965-.216-.224-.546-.336-.99-.336h-.66l-.53 2.976zm4.798-2.445c.436 0 .768.103.997.31.228.207.342.48.342.815 0 .052-.004.106-.013.162-.004.052-.01.108-.019.168l-.323 1.818h-.835l.058-.336h-.05c-.1.125-.226.23-.377.317a1.087 1.087 0 0 1-.537.123 1.21 1.21 0 0 1-.44-.078 1.012 1.012 0 0 1-.336-.2 1.001 1.001 0 0 1-.29-.719c0-.18.033-.343.102-.485a1.08 1.08 0 0 1 .304-.362c.134-.104.292-.18.473-.233.185-.056.388-.084.608-.084.16 0 .304.015.433.045.134.026.261.06.382.104l.026-.097a.417.417 0 0 0-.162-.446.69.69 0 0 0-.446-.137.93.93 0 0 0-.434.097 1.03 1.03 0 0 0-.336.266l-.57-.414c.173-.22.384-.38.635-.48.25-.103.52-.154.808-.154m-.478 2.717c.107 0 .21-.02.304-.059a.976.976 0 0 0 .258-.16.875.875 0 0 0 .188-.234.874.874 0 0 0 .103-.278 1.975 1.975 0 0 0-.278-.097 1.29 1.29 0 0 0-.407-.059.852.852 0 0 0-.466.123.393.393 0 0 0-.194.363c0 .133.047.235.142.304.1.064.216.097.35.097m2.02.556.555-3.17h.796l-.078.44h.052c.104-.15.237-.276.401-.375.164-.104.356-.155.576-.155.112 0 .203.01.272.032.073.021.136.05.187.084l-.317.77a1.082 1.082 0 0 0-.168-.058.839.839 0 0 0-.226-.026.833.833 0 0 0-.62.258c-.165.17-.27.39-.318.667l-.265 1.533h-.848m3.896-2.154h.052l1.178-1.016h1.093l-.013.052-1.397 1.164.957 1.902-.013.052h-.957l-.66-1.397-.44.368-.181 1.03h-.848l.815-4.633h.848l-.434 2.478M2 16.612l.822-4.633h1.552c.207 0 .397.033.57.097.172.065.32.155.446.272.13.116.229.257.298.42.073.165.11.346.11.545 0 .254-.046.48-.136.68a1.39 1.39 0 0 1-.37.504c-.16.133-.35.237-.575.31-.22.07-.461.104-.724.104H3.17l-.298 1.7zm2.109-2.53a.968.968 0 0 0 .582-.168c.156-.116.233-.295.233-.536a.551.551 0 0 0-.155-.408c-.1-.108-.246-.162-.44-.162h-.783l-.226 1.275h.789m3.418-.743c.435 0 .767.103.996.31.228.207.343.479.343.815 0 .052-.005.106-.013.162a2.371 2.371 0 0 1-.02.168l-.323 1.818h-.835l.059-.336h-.052c-.1.125-.224.23-.375.317a1.087 1.087 0 0 1-.537.123 1.2 1.2 0 0 1-.44-.078 1.012 1.012 0 0 1-.337-.2 1.003 1.003 0 0 1-.29-.72c0-.18.034-.341.103-.484.073-.142.174-.263.304-.362.133-.104.29-.181.472-.233.186-.056.388-.084.608-.084.16 0 .304.015.434.045.133.026.26.06.38.104l.027-.097a.417.417 0 0 0-.162-.446.689.689 0 0 0-.446-.136.931.931 0 0 0-.433.097 1.03 1.03 0 0 0-.337.265l-.57-.414c.173-.22.385-.38.635-.48.25-.103.52-.154.809-.154m-.48 2.717c.109 0 .21-.02.305-.058a.977.977 0 0 0 .259-.162.874.874 0 0 0 .187-.233.873.873 0 0 0 .104-.278 1.971 1.971 0 0 0-.278-.097 1.29 1.29 0 0 0-.408-.058.853.853 0 0 0-.466.123.393.393 0 0 0-.194.362c0 .134.048.235.143.304a.62.62 0 0 0 .349.097m4.44-2.717c.19 0 .364.039.524.116.16.074.298.177.414.31.116.13.207.287.272.473.064.18.097.38.097.595a2 2 0 0 1-.13.718 1.826 1.826 0 0 1-.938 1.01 1.68 1.68 0 0 1-.724.155c-.212 0-.406-.046-.583-.136a.88.88 0 0 1-.368-.35H10l-.02.453-.232 1.327H8.9l.809-4.568h.79l-.066.382h.052c.086-.125.21-.237.37-.336.163-.1.374-.15.633-.15m-.51 2.594a.884.884 0 0 0 .387-.084.963.963 0 0 0 .31-.227.989.989 0 0 0 .201-.33 1.11 1.11 0 0 0 .071-.394c0-.237-.07-.425-.213-.563a.76.76 0 0 0-.563-.213.882.882 0 0 0-.362.077 1.02 1.02 0 0 0-.31.214c-.087.09-.158.2-.214.33a1.13 1.13 0 0 0-.078.427c0 .232.071.418.213.556a.766.766 0 0 0 .557.207m5.11-.097a2.17 2.17 0 0 1-.655.647c-.25.155-.562.233-.938.233a1.61 1.61 0 0 1-.627-.117 1.416 1.416 0 0 1-.466-.317 1.444 1.444 0 0 1-.298-.478 1.675 1.675 0 0 1-.103-.59 1.874 1.874 0 0 1 1.113-1.72c.232-.104.491-.155.776-.155.233 0 .435.036.608.11a1.213 1.213 0 0 1 .712.705c.06.16.09.328.09.505 0 .202-.03.39-.09.562H13.82v.065c.01.233.085.405.227.518a.84.84 0 0 0 .51.16c.208 0 .383-.037.525-.115.142-.082.263-.198.362-.35l.64.337m-.576-1.216v-.026a.524.524 0 0 0-.175-.388c-.112-.117-.284-.175-.517-.175a.92.92 0 0 0-.557.175.883.883 0 0 0-.323.414h1.572m1.008 1.992.556-3.17h.796l-.078.44h.052c.104-.15.237-.276.4-.375.165-.104.357-.155.577-.155.112 0 .203.01.272.032.073.022.136.05.187.084l-.317.77a1.077 1.077 0 0 0-.168-.058.837.837 0 0 0-.226-.026.833.833 0 0 0-.621.259c-.164.168-.27.39-.317.666l-.266 1.533h-.847m3.847.104a1.8 1.8 0 0 1-.524-.071 1.425 1.425 0 0 1-.407-.195 1.27 1.27 0 0 1-.285-.284 1.415 1.415 0 0 1-.168-.356l.783-.317a.54.54 0 0 0 .232.362c.126.078.27.117.434.117.147 0 .27-.026.369-.078.103-.056.155-.133.155-.233a.246.246 0 0 0-.104-.207.883.883 0 0 0-.33-.142l-.342-.084a1.66 1.66 0 0 1-.298-.11.97.97 0 0 1-.46-.44.77.77 0 0 1-.07-.336c0-.16.034-.3.103-.421a.992.992 0 0 1 .298-.317 1.35 1.35 0 0 1 .44-.194c.168-.047.35-.071.55-.071.633 0 1.054.254 1.26.763l-.775.285a.441.441 0 0 0-.207-.265.647.647 0 0 0-.35-.098.656.656 0 0 0-.35.078c-.081.048-.122.112-.122.194 0 .138.119.237.356.298l.446.116c.272.07.475.18.608.337a.784.784 0 0 1 .207.537c0 .177-.036.336-.11.478a1.09 1.09 0 0 1-.304.356 1.46 1.46 0 0 1-.46.22 2.04 2.04 0 0 1-.575.078"/></svg>
